public/cash.svg

<svg fill="none" height="72" viewBox="0 0 74 72" width="74" xmlns="http://www.w3.org/2000/svg" xmlns:xlink="http://www.w3.org/1999/xlink"><linearGradient id="a"><stop offset=".00800497" stop-color="#38dbff"/><stop offset="1" stop-color="#243aff"/></linearGradient><linearGradient id="b" gradientUnits="userSpaceOnUse" x1="7.52809" x2="54.6177" xlink:href="#a" y1="42.8945" y2="88.0054"/><linearGradient id="c" gradientUnits="userSpaceOnUse" x1="-1.39841" x2="27.258" xlink:href="#a" y1="52.0921" y2="60.9705"/><linearGradient id="d" gradientUnits="userSpaceOnUse" x1="44.3076" x2="68.3175" xlink:href="#a" y1="8.10959" y2="12.0992"/><linearGradient id="e" gradientUnits="userSpaceOnUse" x1="32.4712" x2="80.8327" xlink:href="#a" y1="8.31429" y2="25.8042"/><path d="m11.7192 47.4455 9.65 13.79 3.98-2.92s1.78-1.05 4.54-.89 14.28.08 15.9-.65 11.52-3.81 12.82-4.54 3.98-1.78 7.14-4.38 9.9-6.73 7.79-9.57c-1.3-1.62-5.35.81-7.79 2.03-2.43 1.22-6.65 3.25-6.65 3.25s-1.78.57-1.54 2.52-2.11 4.54-6.33 5.27-8.6.32-12.74-.24-5.35-.49-5.35-.49-2.03 0-.89-.65c.59-.11 4.81.16 6.54.22 1.73.05 11.95 1.15 15.36-1.24 3.42-2.39 1.89-4.71.11-5.35-1.78-.65-4.92-.49-7.14-.49s-5.84.27-10.87-2.6-11.52-2.76-14.55-1.35-5.41 3.95-6.54 5.41c-1.14 1.44-2.27 2.19-3.44 2.87z" fill="url(#b)"/><path d="m8.9892 46.5557-8.9299959 5.73 13.4699959 19.53 8.17-7.09zm7.45 19.86c-1.22 0-2.22-.99-2.22-2.22s.99-2.22 2.22-2.22 2.22.99 2.22 2.22c-.01 1.22-1 2.22-2.22 2.22z" fill="url(#c)"/><path d="m54.9359 31.4535v-2.233c3.9146-.3032 6.2578-2.6464 6.2578-5.927 0-2.8119-1.9573-4.3832-5.2102-5.0724l-2.7568-.579c-1.2405-.2481-2.3708-.827-2.3708-2.0951 0-1.4335 1.1854-2.3432 2.9497-2.3432 1.9022 0 3.1979 1.2129 3.3081 3.0324h3.8319c-.2481-3.3632-2.6189-5.6238-6.0097-6.0649v-2.31565h-2.5087v2.31565c-3.2254.4687-5.4583 2.7017-5.4583 5.679 0 3.3081 2.2881 4.5762 4.9621 5.1827l2.8119.5789c1.406.3032 2.3708.9924 2.3708 2.1778 0 1.5162-1.4611 2.3708-3.3632 2.3708-2.2881 0-3.5838-1.2129-3.6389-3.1702h-3.8319c.2481 3.3908 2.5086 5.7065 6.1475 6.1751v2.2881z" fill="url(#d)"/><path d="m53.8492 37.7357c-10.39 0-18.84-8.45-18.84-18.84 0-10.39004 8.45-18.8400359 18.84-18.8400359s18.84 8.4499959 18.84 18.8400359c0 10.39-8.45 18.84-18.84 18.84zm0-34.60004c-8.69 0-15.76 7.07004-15.76 15.76004s7.07 15.76 15.76 15.76 15.76-7.07 15.76-15.76-7.07-15.76004-15.76-15.76004z" fill="url(#e)"/></svg>

<svg width="74" height="72" viewBox="0 0 74 72" fill="none" xmlns="http://www.w3.org/2000/svg">
<path d="M11.7192 47.4455L21.3692 61.2355L25.3492 58.3155C25.3492 58.3155 27.1292 57.2655 29.8892 57.4255C32.6492 57.5855 44.1692 57.5055 45.7892 56.7755C47.4092 56.0455 57.3092 52.9655 58.6092 52.2355C59.9092 51.5055 62.5892 50.4555 65.7492 47.8555C68.9092 45.2555 75.6492 41.1255 73.5392 38.2855C72.2392 36.6655 68.1892 39.0955 65.7492 40.3155C63.3192 41.5355 59.0992 43.5655 59.0992 43.5655C59.0992 43.5655 57.3192 44.1355 57.5592 46.0855C57.7992 48.0355 55.4492 50.6255 51.2292 51.3555C47.0092 52.0855 42.6292 51.6755 38.4892 51.1155C34.3492 50.5555 33.1392 50.6255 33.1392 50.6255C33.1392 50.6255 31.1092 50.6255 32.2492 49.9755C32.8392 49.8655 37.0592 50.1355 38.7892 50.1955C40.5192 50.2455 50.7392 51.3455 54.1492 48.9555C57.5692 46.5655 56.0392 44.2455 54.2592 43.6055C52.4792 42.9555 49.3392 43.1155 47.1192 43.1155C44.8992 43.1155 41.2792 43.3855 36.2492 40.5155C31.2192 37.6455 24.7292 37.7555 21.6992 39.1655C18.6692 40.5755 16.2892 43.1155 15.1592 44.5755C14.0192 46.0155 12.8892 46.7655 11.7192 47.4455Z" fill="url(#paint0_linear_76_672)"/>
<path d="M8.9892 46.5557L0.0592041 52.2857L13.5292 71.8157L21.6992 64.7257L8.9892 46.5557ZM16.4392 66.4157C15.2192 66.4157 14.2192 65.4257 14.2192 64.1957C14.2192 62.9657 15.2092 61.9757 16.4392 61.9757C17.6692 61.9757 18.6592 62.9657 18.6592 64.1957C18.6492 65.4157 17.6592 66.4157 16.4392 66.4157Z" fill="url(#paint1_linear_76_672)"/>
<path d="M54.9359 31.4535V29.2205C58.8505 28.9173 61.1937 26.5741 61.1937 23.2935C61.1937 20.4816 59.2364 18.9103 55.9835 18.2211L53.2267 17.6421C51.9862 17.394 50.8559 16.8151 50.8559 15.547C50.8559 14.1135 52.0413 13.2038 53.8056 13.2038C55.7078 13.2038 57.0035 14.4167 57.1137 16.2362H60.9456C60.6975 12.873 58.3267 10.6124 54.9359 10.1713V7.85565H52.4272V10.1713C49.2018 10.64 46.9689 12.873 46.9689 15.8503C46.9689 19.1584 49.257 20.4265 51.931 21.033L54.7429 21.6119C56.1489 21.9151 57.1137 22.6043 57.1137 23.7897C57.1137 25.3059 55.6526 26.1605 53.7505 26.1605C51.4624 26.1605 50.1667 24.9476 50.1116 22.9903H46.2797C46.5278 26.3811 48.7883 28.6968 52.4272 29.1654V31.4535H54.9359Z" fill="url(#paint2_linear_76_672)"/>
<path d="M53.8492 37.7357C43.4592 37.7357 35.0092 29.2857 35.0092 18.8957C35.0092 8.50566 43.4592 0.0556641 53.8492 0.0556641C64.2392 0.0556641 72.6892 8.50566 72.6892 18.8957C72.6892 29.2857 64.2392 37.7357 53.8492 37.7357ZM53.8492 3.13566C45.1592 3.13566 38.0892 10.2057 38.0892 18.8957C38.0892 27.5857 45.1592 34.6557 53.8492 34.6557C62.5392 34.6557 69.6092 27.5857 69.6092 18.8957C69.6092 10.2057 62.5392 3.13566 53.8492 3.13566Z" fill="url(#paint3_linear_76_672)"/>
<defs>
<linearGradient id="paint0_linear_76_672" x1="7.52809" y1="42.8945" x2="54.6177" y2="88.0054" gradientUnits="userSpaceOnUse">
<stop offset="0.00800497" stop-color="#38DBFF"/>
<stop offset="1" stop-color="#243AFF"/>
</linearGradient>
<linearGradient id="paint1_linear_76_672" x1="-1.39841" y1="52.0921" x2="27.258" y2="60.9705" gradientUnits="userSpaceOnUse">
<stop offset="0.00800497" stop-color="#38DBFF"/>
<stop offset="1" stop-color="#243AFF"/>
</linearGradient>
<linearGradient id="paint2_linear_76_672" x1="44.3076" y1="8.10959" x2="68.3175" y2="12.0992" gradientUnits="userSpaceOnUse">
<stop offset="0.00800497" stop-color="#38DBFF"/>
<stop offset="1" stop-color="#243AFF"/>
</linearGradient>
<linearGradient id="paint3_linear_76_672" x1="32.4712" y1="8.31429" x2="80.8327" y2="25.8042" gradientUnits="userSpaceOnUse">
<stop offset="0.00800497" stop-color="#38DBFF"/>
<stop offset="1" stop-color="#243AFF"/>
</linearGradient>
</defs>
</svg>
